.local/share/icons/Gruvbox-Plus-Dark/mimetypes/scalable/qgis-mime.svg

<svg width="256" height="256" viewBox="0 0 256 256" fill="none" xmlns="http://www.w3.org/2000/svg">
<g opacity="0.4" filter="url(#filter0_f)">
<path d="M55.0839 15.5636H155.608L216.009 75.7129L216.011 224.609C216.011 233.52 208.749 240.737 199.838 240.737H55.0838C46.1734 240.737 39 233.564 39 224.654V31.6474C39 22.737 46.1734 15.5636 55.0838 15.5636H55.0839Z" fill="#282828"/>
</g>
<path d="M55.0839 15H155.608L216.009 75.1493L216.011 224.045C216.011 232.956 208.749 240.174 199.838 240.174H55.0838C46.1734 240.174 39 233 39 224.09V31.0838C39 22.1734 46.1734 15 55.0838 15H55.0839Z" fill="#ebdbb2"/>
<path fill-rule="evenodd" clip-rule="evenodd" d="M155.609 22.9787H55.0839C50.58 22.9787 46.9787 26.5799 46.9787 31.0838V224.09C46.9787 228.594 50.5799 232.195 55.0838 232.195H199.838C204.371 232.195 208.032 228.521 208.032 224.046V75.1493L155.609 22.9787ZM155.608 15H55.0839C46.1735 15 39 22.1734 39 31.0838V224.09C39 233 46.1734 240.174 55.0838 240.174H199.838C208.749 240.174 216.011 232.956 216.011 224.045L216.009 75.1493L155.608 15Z" fill="url(#paint0_linear)"/>
<path d="M119.207 182.646C111.317 181.635 105.692 179.918 98.3502 176.279C94.7789 174.51 94.456 174.328 93.7669 173.705C93.4491 173.417 93.0943 173.182 92.9785 173.182C92.3511 173.182 86.2539 168.29 83.9631 165.949C82.7503 164.71 80.7319 162.408 79.8068 161.209C77.7849 158.589 76.7136 157.11 76.7136 156.939C76.7136 156.837 76.4485 156.378 76.1244 155.918C75.1647 154.558 73.5865 151.482 72.4555 148.77C68.6886 139.734 67.2559 129.808 68.3653 120.431C69.2641 112.835 71.4344 105.635 74.4145 100.363C74.9865 99.3505 75.4546 98.4547 75.4546 98.372C75.4546 98.0633 79.0517 93.0127 80.4325 91.3827C83.0808 88.2565 88.1316 83.4393 89.8259 82.4238C91.732 81.2812 92.448 80.7735 92.4498 80.5627C92.4507 80.4329 92.5906 80.3267 92.7604 80.3267C92.9302 80.3267 93.8154 79.863 94.7277 79.2963C97.9559 77.2907 106.643 73.3993 107.882 73.4035C108.138 73.4043 108.985 73.2061 109.764 72.963C114.358 71.5293 121.331 70.5946 127.548 70.5789C134.881 70.5604 143.496 71.9516 149.424 74.1114C152.549 75.2499 157.008 77.213 158.595 78.1489C159.452 78.6542 160.213 79.0676 160.286 79.0676C160.614 79.0676 164.374 81.6557 166.774 83.533C168.886 85.1846 173.151 89.3819 175.991 92.6024C178.659 95.6294 183.424 104.759 184.78 109.442C187.44 118.629 188.04 125.749 186.874 134.308C186.281 138.665 185.209 142.718 183.211 148.158C182.405 150.35 180.487 153.981 180.134 153.981C179.948 153.981 175.85 150.03 171.029 145.201L162.264 136.42L162.768 134.201C163.128 132.62 163.272 130.412 163.27 126.535C163.266 120.971 162.85 118.265 161.293 113.678C160.053 110.028 156.681 104.144 154.781 102.315C154.486 102.031 153.974 101.464 153.644 101.056C152.66 99.8411 149.712 97.3285 147.704 95.9936C141.71 92.0095 135.297 90.0843 128.02 90.0843C119.634 90.0843 112.03 92.7372 105.235 98.0339C102.791 99.9388 97.8027 105.559 97.8027 106.408C97.8027 106.605 97.6923 106.767 97.5574 106.767C97.2137 106.767 94.4969 112.262 93.9005 114.164C93.6291 115.029 93.1841 116.446 92.9117 117.311C91.603 121.47 91.6145 131.814 92.9325 136.04C94.2113 140.139 94.6722 141.36 95.7568 143.518C98.6275 149.231 102.897 154.084 108.108 157.557C110.29 159.011 113.911 160.816 116.059 161.52C121.151 163.19 121.664 163.267 127.705 163.267C130.908 163.267 134.047 163.156 134.681 163.022L135.833 162.776L143.892 170.714L151.951 178.652L150.451 179.241C142.05 182.541 129.259 183.935 119.207 182.646H119.207Z" fill="url(#paint1_linear)"/>
<path fill-rule="evenodd" clip-rule="evenodd" d="M148.863 130.115L136.739 118.157C131.011 118.206 125.282 118.265 119.554 118.323L119.382 118.325V134.777L131.509 146.731V146.734L141.891 156.968L142.884 157.954C151.932 166.935 160.98 175.917 169.901 185.025L188 185.421L186.885 168.047L162.972 144.098H163.043L148.866 130.115C148.865 130.115 148.864 130.115 148.863 130.115Z" fill="url(#paint2_linear)"/>
<path opacity="0.25" d="M155.608 17V61.2306C155.608 70.141 162.867 77.1605 171.777 77.1605L216.009 77.1493V75.1493L155.608 17Z" fill="#282828"/>
<path d="M155.608 15V59.2306C155.608 68.141 162.867 75.1605 171.777 75.1605L216.009 75.1493L155.608 15Z" fill="url(#paint3_linear)"/>
<defs>
<filter id="filter0_f" x="23.8778" y="0.441412" width="207.255" height="255.418" filterUnits="userSpaceOnUse" color-interpolation-filters="sRGB">
<feFlood flood-opacity="0" result="BackgroundImageFix"/>
<feBlend mode="normal" in="SourceGraphic" in2="BackgroundImageFix" result="shape"/>
<feGaussianBlur stdDeviation="7.5611" result="effect1_foregroundBlur"/>
</filter>
<linearGradient id="paint0_linear" x1="127.506" y1="245.178" x2="127.506" y2="15" gradientUnits="userSpaceOnUse">
<stop offset="0.0217391" stop-color="#d65d0e"/>
<stop offset="1" stop-color="#fe8019"/>
</linearGradient>
<linearGradient id="paint1_linear" x1="127.721" y1="185.623" x2="127.721" y2="70.5788" gradientUnits="userSpaceOnUse">
<stop offset="0.0217391" stop-color="#d65d0e"/>
<stop offset="1" stop-color="#fe8019"/>
</linearGradient>
<linearGradient id="paint2_linear" x1="153.691" y1="186.916" x2="153.691" y2="118.157" gradientUnits="userSpaceOnUse">
<stop offset="0.0217391" stop-color="#d65d0e"/>
<stop offset="1" stop-color="#fe8019"/>
</linearGradient>
<linearGradient id="paint3_linear" x1="185.808" y1="76.4974" x2="185.808" y2="15" gradientUnits="userSpaceOnUse">
<stop offset="0.0217391" stop-color="#d65d0e"/>
<stop offset="1" stop-color="#fe8019"/>
</linearGradient>
</defs>
</svg>

<svg width="256" height="256" fill="none" version="1.1" viewBox="0 0 256 256" xmlns="http://www.w3.org/2000/svg">
  <path d="m55.08 15h100.5l60.4 60.15 2e-3 148.9c0 8.911-7.262 16.13-16.17 16.13h-144.8c-8.91 0-16.08-7.174-16.08-16.08v-193c0-8.91 7.173-16.08 16.08-16.08h1e-4z" fill="#ebdbb2"/>
  <path d="m155.6 22.98h-100.5c-4.504 0-8.105 3.601-8.105 8.105v193c0 4.504 3.601 8.105 8.105 8.105h144.8c4.533 0 8.194-3.674 8.194-8.149v-148.9l-52.42-52.17zm-1e-3 -7.979h-100.5c-8.91 0-16.08 7.173-16.08 16.08v193c0 8.91 7.173 16.08 16.08 16.08h144.8c8.911 0 16.17-7.218 16.17-16.13l-2e-3 -148.9-60.4-60.15z" clip-rule="evenodd" fill="url(#paint0_linear)" fill-rule="evenodd"/>
  <path d="m119.2 182.6c-7.89-1.011-13.52-2.728-20.86-6.367-3.571-1.769-3.894-1.951-4.583-2.574-0.3178-0.288-0.6726-0.523-0.7884-0.523-0.6274 0-6.725-4.892-9.015-7.233-1.213-1.239-3.231-3.541-4.156-4.74-2.022-2.62-3.093-4.099-3.093-4.27 0-0.102-0.2651-0.561-0.5892-1.021-0.9597-1.36-2.538-4.436-3.669-7.148-3.767-9.036-5.2-18.96-4.09-28.34 0.8988-7.596 3.069-14.8 6.049-20.07 0.572-1.012 1.04-1.908 1.04-1.991 0-0.3087 3.597-5.359 4.978-6.989 2.648-3.126 7.699-7.943 9.393-8.959 1.906-1.143 2.622-1.65 2.624-1.861 9e-4 -0.1298 0.1408-0.236 0.3106-0.236s1.055-0.4637 1.967-1.03c3.228-2.006 11.92-5.897 13.15-5.893 0.256 8e-4 1.103-0.1974 1.882-0.4405 4.594-1.434 11.57-2.368 17.78-2.384 7.333-0.0185 15.95 1.373 21.88 3.532 3.125 1.138 7.584 3.102 9.171 4.038 0.857 0.5053 1.618 0.9187 1.691 0.9187 0.328 0 4.088 2.588 6.488 4.465 2.112 1.652 6.377 5.849 9.217 9.069 2.668 3.027 7.433 12.16 8.789 16.84 2.66 9.187 3.26 16.31 2.094 24.87-0.593 4.357-1.665 8.41-3.663 13.85-0.806 2.192-2.724 5.823-3.077 5.823-0.186 0-4.284-3.951-9.105-8.78l-8.765-8.781 0.504-2.219c0.36-1.581 0.504-3.789 0.502-7.666-4e-3 -5.564-0.42-8.27-1.977-12.86-1.24-3.65-4.612-9.534-6.512-11.36-0.295-0.284-0.807-0.851-1.137-1.259-0.984-1.215-3.932-3.728-5.94-5.062-5.994-3.984-12.41-5.909-19.68-5.909-8.386 0-15.99 2.653-22.78 7.95-2.444 1.905-7.432 7.525-7.432 8.374 0 0.197-0.1104 0.359-0.2453 0.359-0.3437 0-3.06 5.495-3.657 7.397-0.2714 0.865-0.7164 2.282-0.9888 3.147-1.309 4.159-1.297 14.5 0.0208 18.73 1.279 4.099 1.74 5.32 2.824 7.478 2.871 5.713 7.14 10.57 12.35 14.04 2.182 1.454 5.803 3.259 7.951 3.963 5.092 1.67 5.605 1.747 11.65 1.747 3.203 0 6.342-0.111 6.976-0.245l1.152-0.246 16.12 15.88-1.5 0.589c-8.401 3.3-21.19 4.694-31.24 3.405z" fill="url(#paint1_linear)"/>
  <path d="m148.9 130.1-12.12-11.96c-5.728 0.049-11.46 0.108-17.18 0.166l-0.172 2e-3v16.45l12.13 11.95v3e-3l10.38 10.23 0.993 0.986c9.048 8.981 18.1 17.96 27.02 27.07l18.1 0.396-1.115-17.37-23.91-23.95h0.071l-14.18-13.98h-3e-3z" clip-rule="evenodd" fill="url(#paint2_linear)" fill-rule="evenodd"/>
  <path d="m155.6 17v44.23c0 8.91 7.259 15.93 16.17 15.93l44.23-0.0112v-2l-60.4-58.15z" fill="#282828" opacity=".25"/>
  <path d="m155.6 15v44.23c0 8.91 7.259 15.93 16.17 15.93l44.23-0.0112-60.4-60.15z" fill="url(#paint3_linear)"/>
  <defs>
    <linearGradient id="paint0_linear" x1="127.5" x2="127.5" y1="245.2" y2="15" gradientUnits="userSpaceOnUse">
      <stop stop-color="#d65d0e" offset=".02174"/>
      <stop stop-color="#fe8019" offset="1"/>
    </linearGradient>
    <linearGradient id="paint1_linear" x1="127.7" x2="127.7" y1="185.6" y2="70.58" gradientUnits="userSpaceOnUse">
      <stop stop-color="#d65d0e" offset=".02174"/>
      <stop stop-color="#fe8019" offset="1"/>
    </linearGradient>
    <linearGradient id="paint2_linear" x1="153.7" x2="153.7" y1="186.9" y2="118.2" gradientUnits="userSpaceOnUse">
      <stop stop-color="#d65d0e" offset=".02174"/>
      <stop stop-color="#fe8019" offset="1"/>
    </linearGradient>
    <linearGradient id="paint3_linear" x1="185.8" x2="185.8" y1="76.5" y2="15" gradientUnits="userSpaceOnUse">
      <stop stop-color="#d65d0e" offset=".02174"/>
      <stop stop-color="#fe8019" offset="1"/>
    </linearGradient>
  </defs>
</svg>
